modules/linearicons/icons/magnifier.svg

<?xml version="1.0" encoding="utf-8"?>
<!-- Generated by IcoMoon.io -->
<!DOCTYPE svg PUBLIC "-//W3C//DTD SVG 1.1//EN" "http://www.w3.org/Graphics/SVG/1.1/DTD/svg11.dtd">
<svg version="1.1" xmlns="http://www.w3.org/2000/svg" xmlns:xlink="http://www.w3.org/1999/xlink" width="20" height="20" viewBox="0 0 20 20">
<path fill="#000000" d="M18.869 19.162l-5.943-6.484c1.339-1.401 2.075-3.233 2.075-5.178 0-2.003-0.78-3.887-2.197-5.303s-3.3-2.197-5.303-2.197-3.887 0.78-5.303 2.197-2.197 3.3-2.197 5.303 0.78 3.887 2.197 5.303 3.3 2.197 5.303 2.197c1.726 0 3.362-0.579 4.688-1.645l5.943 6.483c0.099 0.108 0.233 0.162 0.369 0.162 0.121 0 0.242-0.043 0.338-0.131 0.204-0.187 0.217-0.503 0.031-0.706zM1 7.5c0-3.584 2.916-6.5 6.5-6.5s6.5 2.916 6.5 6.5-2.916 6.5-6.5 6.5-6.5-2.916-6.5-6.5z"></path>
</svg>

<svg xmlns="http://www.w3.org/2000/svg" width="20" height="20" viewBox="0 0 20 20"><path d="M18.869 19.162l-5.943-6.484A7.448 7.448 0 0 0 15.001 7.5c0-2.003-.78-3.887-2.197-5.303S9.504 0 7.501 0 3.614.78 2.198 2.197.001 5.497.001 7.5s.78 3.887 2.197 5.303S5.498 15 7.501 15a7.441 7.441 0 0 0 4.688-1.645l5.943 6.483a.497.497 0 0 0 .707.031.5.5 0 0 0 .031-.706zM1 7.5C1 3.916 3.916 1 7.5 1S14 3.916 14 7.5 11.084 14 7.5 14 1 11.084 1 7.5z"/></svg>
